X: 60
T: I am Exalted Among the People
N: Derived from pawnee60.krn
O: Oklahoma, U.S.A.
N: from Pawnee Music by Frances Densmore, 1926
Z: transcribed to **kern format by David Huron, August 2000
C: Skidi and Chaui Bands, 1919
L: 1/16
M: 2/4
Q: 1/4=88
K: E clef=bass
%%linebreak <none>
G [I:setbarnb 1]| 
G2> F2 F3 E | 
E2> E2 E3 F | 
F2> E2 E3 E | 
(E D2) B,2< B,2 B, | 
A,2> F,2 F,3 E, | 
E,2> E,2 E,3 B, | 
A,2> F,2 F,3 E, | 
E,2> E,2E,4 | 
E,8 | 
E,7 |]  



